P3
48 48
255
 255 182 165 255 194 173 255 182 165 255 194 173 255 182 165 255 194 173 255 182 165 255 194 173 255 190 165 255 194 173 255 190 165 255 194 173 255 190 165 255 194 173 255 190 165 255 194 173 255 190 165 255 194 173 255 190 165 255 194 173 255 190 165 255 194 173 255 190 165 255 194 173 255 190 165 255 194 173 255 190 165 255 194 173 255 190 165 255 194 173 255 190 165 255 194 173 255 190 165 255 194 173 255 190 165 255 194 173 255 190 165 255 194 173 255 190 165 255 194 173 255 190 165 255 194 173 255 190 165 255 194 173 255 186 165 255 190 173 255 186 165 255 190 173 255 190 165 255 190 165 255 190 173 255 190 165 255 190 165 255 190 165 255 190 173 255 190 165 255 194 165 255 190 165 255 194 173 255 190 165 255 194 165 255 190 165 255 194 173 255 190 165 255 194 165 255 190 165 255 194 173 255 190 165 255 194 165 255 190 165 255 194 173 255 190 165 255 194 165 255 190 165 255 194 173 255 190 165 255 194 165 255 190 165 255 194 173 255 190 165 255 194 165 255 190 165 255 194 173 255 190 165 255 194 165 255 190 165 255 194 173 255 190 165 255 194 165 255 190 165 255 194 173 255 190 165 255 190 165 255 190 165 255 190 173 255 190 165 255 190 165 255 194 173 255 190 165 255 194 173 255 190 165 255 194 173 255 190 165 255 194 173 255 190 165 255 194 173 255 190 165 255 194 173 255 190 165 255 194 173 255 190 165 255 194 173 255 190 165 255 194 173 255 190 165 255 235 230 255 231 222 255 235 230 255 231 222 255 235 230 255 231 222 255 235 230 255 231 222 255 235 230 255 190 165 255 194 173 255 190 165 255 194 173 255 190 165 255 194 173 255 190 165 255 194 173 255 190 165 255 194 173 255 190 165 255 194 173 255 190 165 255 194 173 255 190 165 255 194 173 255 190 165 255 194 173 255 190 165 255 194 173 255 194 173 255 190 165 255 194 165 255 190 165 255 194 173 255 190 165 255 194 165 255 190 165 255 194 173 255 190 165 255 194 165 255 190 165 255 194 173 255 190 165 255 194 165 255 231 222 255 231 222 255 231 222 255 231 222 255 255 255 255 255 255 255 255 255 255 255 255 255 255 255 255 255 255 255 255 255 255 255 255 255 255 255 255 231 222 255 231 222 255 231 222 255 231 222 255 194 173 255 190 165 255 194 165 255 190 165 255 194 173 255 190 165 255 194 165 255 190 165 255 194 173 255 190 165 255 194 165 255 190 165 255 194 173 255 190 165 255 194 165 255 190 165 255 190 165 255 194 173 255 190 165 255 194 173 255 190 165 255 194 173 255 190 165 255 194 173 255 190 165 255 194 173 255 190 165 255 194 173 255 190 165 255 231 222 255 227 222 255 255 255 255 255 255 255 255 255 255 255 255 255 255 255 255 255 255 255 255 255 255 255 255 255 255 255 255 255 255 255 255 255 255 255 255 255 255 255 255 255 255 255 255 255 255 255 255 255 255 255 255 227 214 255 231 222 255 190 165 255 194 173 255 190 165 255 194 173 255 190 165 255 194 173 255 190 165 255 194 173 255 190 165 255 194 173 255 190 165 255 194 173 255 190 165 255 194 173 255 194 165 255 190 165 255 194 173 255 190 165 255 194 165 255 190 165 255 194 173 255 190 165 255 194 165 255 190 165 255 194 173 255 227 214 255 227 222 255 255 255 255 255 255 255 255 255 255 255 255 255 255 255 255 255 255 255 255 255 255 255 255 255 255 255 255 255 255 255 255 255 255 255 255 255 255 255 255 255 255 255 255 255 255 255 255 255 255 255 255 255 255 255 255 255 255 255 255 255 255 255 255 227 222 255 227 214 255 194 173 255 190 165 255 194 173 255 190 165 255 194 165 255 190 165 255 194 173 255 190 165 255 194 165 255 190 165 255 194 173 255 190 165 255 190 165 255 194 173 255 190 165 255 194 173 255 190 165 255 194 173 255 190 165 255 194 173 255 190 165 255 194 173 255 223 214 255 255 255 255 255 255 255 255 255 255 255 255 255 255 255 255 255 255 255 255 255 255 255 255 255 255 255 255 255 255 255 255 255 255 255 255 255 255 255 255 255 255 255 255 255 255 255 255 255 255 255 255 255 255 255 255 255 255 255 255 255 255 255 255 255 255 255 255 255 255 255 255 255 255 255 255 227 214 255 194 173 255 190 165 255 190 165 255 190 165 255 194 173 255 190 165 255 194 173 255 190 165 255 194 173 255 190 165 255 194 173 255 194 173 255 190 165 255 194 165 255 190 165 255 194 173 255 190 165 255 194 165 255 190 165 255 223 214 255 223 214 255 255 255 255 255 255 255 255 255 255 255 255 255 255 255 255 255 255 255 255 255 255 255 255 255 255 255 255 255 255 255 255 255 255 255 255 255 255 255 255 255 255 255 255 255 255 255 255 255 255 255 255 255 255 255 255 255 255 255 255 255 255 255 255 255 255 255 255 255 255 255 255 255 255 255 255 255 255 255 255 255 255 223 214 255 219 206 255 194 173 255 186 165 255 190 165 255 194 165 255 190 165 255 194 173 255 190 165 255 194 165 255 190 165 255 190 165 255 194 173 255 190 165 255 194 173 255 190 165 255 194 173 255 190 165 255 223 214 255 255 255 255 255 255 255 255 255 255 255 255 255 255 255 255 255 255 255 255 255 255 255 255 255 255 255 255 255 255 255 255 255 255 255 255 255 255 255 255 255 255 255 255 255 255 255 255 255 255 255 255 255 255 255 255 255 255 255 255 255 255 255 255 255 255 255 255 255 255 255 255 255 255 255 255 255 255 255 255 255 255 255 255 255 255 255 255 255 255 255 255 255 255 227 222 255 190 165 255 194 173 255 190 165 255 194 173 255 190 165 255 194 173 255 190 165 255 194 173 255 194 165 255 190 165 255 194 173 255 190 165 255 194 165 255 190 165 255 219 206 255 255 255 255 255 255 255 255 255 255 255 255 255 255 255 255 255 255 255 255 255 255 255 255 255 255 255 255 255 255 255 255 255 255 255 255 255 255 255 255 255 255 255 255 255 255 255 255 255 255 255 255 255 255 255 255 255 255 255 255 255 255 255 255 255 255 255 255 255 255 255 255 255 255 255 255 255 255 255 255 255 255 255 255 255 255 255 255 255 255 255 255 255 255 255 255 255 255 255 255 227 214 255 198 173 255 194 173 255 190 165 255 194 165 255 190 165 255 194 173 255 190 165 255 190 165 255 194 173 255 190 165 255 194 173 255 190 165 255 219 206 255 255 255 255 255 255 255 255 255 255 255 255 255 255 255 255 255 255 255 255 255 255 255 255 255 255 255 255 255 255 255 255 255 255 255 255 255 255 255 255 255 255 255 255 255 255 255 255 255 255 255 255 255 255 255 255 255 255 255 255 255 255 255 255 255 255 255 255 255 255 255 255 255 255 255 255 255 255 255 255 255 255 255 255 255 255 255 255 255 255 255 255 255 255 255 255 255 255 255 255 255 255 255 255 255 255 227 222 255 198 173 255 194 173 255 190 165 255 194 173 255 190 165 255 194 173 255 194 173 255 190 165 255 194 165 255 190 165 255 194 173 255 255 255 255 255 255 255 255 255 255 255 255 255 255 255 255 255 255 255 255 255 255 255 255 255 255 255 255 255 255 255 255 255 255 255 255 255 255 255 255 255 255 255 255 255 255 255 255 255 255 255 255 255 255 255 255 255 255 255 255 255 255 255 255 255 255 255 255 255 255 255 255 255 255 255 255 255 255 255 255 255 255 255 255 255 255 255 255 255 255 255 255 255 255 255 255 255 255 255 255 255 255 255 255 255 255 255 255 255 255 255 255 210 197 255 190 165 255 194 173 255 190 165 255 194 165 255 190 165 255 178 165 255 178 173 255 178 165 255 178 173 255 178 165 255 227 239 255 255 255 255 255 255 255 255 255 255 255 255 255 255 255 255 255 255 255 255 255 255 255 255 255 255 255 255 255 255 255 255 255 255 255 255 255 255 255 255 255 255 255 255 255 255 255 255 255 255 255 255 255 255 255 255 255 255 255 255 255 255 255 255 255 255 255 255 255 255 255 255 255 255 255 255 255 255 255 255 255 255 255 255 255 255 255 255 255 255 255 255 255 255 255 255 255 255 255 255 255 255 255 255 255 255 255 255 255 223 214 255 198 181 255 190 165 255 194 173 255 190 165 255 194 173 247 146 165 239 142 165 247 146 165 239 142 165 247 146 165 239 142 165 255 255 255 255 255 255 255 255 255 255 255 255 255 255 255 255 255 255 255 255 255 255 255 255 255 255 255 255 255 255 255 255 255 255 255 255 255 255 255 255 255 255 255 255 255 255 255 255 255 255 255 255 255 255 255 255 255 255 255 255 255 255 255 255 255 255 255 255 255 255 255 255 255 255 255 255 255 255 255 255 255 255 255 255 255 255 255 255 255 255 255 255 255 255 255 255 255 255 255 255 255 255 255 255 255 255 255 255 255 255 255 255 223 214 255 198 173 255 190 165 255 194 173 255 190 165 239 142 156 247 146 165 239 142 156 247 146 165 239 142 156 247 146 165 255 255 255 255 255 255 255 255 255 255 255 255 255 255 255 255 255 255 255 255 255 255 255 255 255 255 255 255 255 255 255 255 255 255 255 255 255 255 255 255 255 255 255 255 255 255 255 255 255 255 255 255 255 255 255 255 255 255 255 255 255 255 255 255 255 255 255 255 255 255 255 255 255 255 255 255 255 255 255 255 255 255 255 255 255 255 255 255 255 255 255 255 255 255 255 255 255 255 255 255 255 255 255 255 255 255 255 255 255 255 255 255 255 255 255 215 197 255 194 173 255 190 165 255 194 173 247 146 165 239 142 165 247 146 165 239 142 165 247 146 165 239 142 165 255 255 255 255 255 255 255 255 255 255 255 255 255 255 255 255 255 255 255 255 255 255 255 255 255 255 255 255 255 255 255 255 255 255 255 255 255 255 255 255 255 255 255 255 255 255 255 255 255 255 255 255 255 255 255 255 255 255 255 255 255 255 255 255 255 255 255 255 255 255 255 255 255 255 255 255 255 255 255 255 255 255 255 255 255 255 255 255 255 255 255 255 255 255 255 255 255 255 255 255 255 255 255 255 255 255 255 255 255 255 255 255 255 255 255 223 214 255 198 173 255 194 165 255 190 165 239 142 156 247 146 165 239 142 156 247 146 165 239 142 156 247 146 165 255 255 255 255 255 255 255 255 255 255 255 255 255 255 255 255 255 255 255 255 255 255 255 255 255 255 255 255 255 255 255 255 255 255 255 255 255 255 255 255 255 255 255 255 255 255 255 255 255 255 255 255 255 255 255 255 255 255 255 255 255 255 255 255 255 255 255 255 255 255 255 255 255 255 255 255 255 255 255 255 255 255 255 255 255 255 255 255 255 255 255 255 255 255 255 255 255 255 255 255 255 255 255 255 255 255 255 255 255 255 255 255 255 255 255 255 255 255 219 206 255 190 165 255 194 173 247 146 165 239 142 165 247 146 165 239 142 165 247 146 165 239 142 165 255 255 255 255 255 255 255 255 255 255 255 255 255 255 255 255 255 255 255 255 255 255 255 255 255 255 255 255 255 255 255 255 255 255 255 255 255 255 255 255 255 255 255 255 255 255 243 247 255 243 247 255 243 247 255 243 247 255 243 247 255 243 247 255 243 247 255 243 247 255 243 247 255 243 247 255 243 247 255 243 247 255 243 247 255 255 255 255 255 255 255 255 255 255 255 255 255 255 255 255 255 255 255 255 255 255 255 255 255 255 255 255 255 255 255 255 255 255 223 214 255 198 173 255 190 165 239 142 156 247 146 165 239 142 156 247 146 165 239 142 156 247 146 165 255 255 255 255 255 255 255 255 255 255 255 255 255 255 255 255 255 255 255 255 255 255 255 255 255 255 255 255 255 255 255 255 255 255 255 255 255 255 255 255 255 255 255 255 255 247 146 165 239 142 156 247 146 165 239 142 156 247 146 165 239 142 156 247 146 165 239 142 156 247 146 165 239 142 156 247 146 165 239 142 156 247 146 165 255 251 255 255 255 255 255 255 255 255 255 255 255 255 255 255 255 255 255 255 255 255 255 255 255 255 255 255 255 255 255 255 255 255 255 255 255 219 206 255 194 173 247 146 165 239 142 165 247 146 165 239 142 165 247 146 165 239 142 165 255 255 255 255 255 255 255 255 255 255 255 255 255 255 255 255 255 255 255 255 255 255 255 255 255 255 255 255 255 255 255 255 255 255 255 255 255 255 255 255 255 255 255 255 255 239 142 165 247 146 165 239 142 165 247 146 165 239 142 165 247 146 165 239 142 165 247 146 165 239 142 165 247 146 165 239 142 165 247 146 165 239 142 165 255 255 255 255 255 255 255 255 255 255 255 255 255 255 255 255 255 255 255 255 255 255 255 255 255 255 255 255 255 255 255 255 255 255 255 255 255 219 206 255 190 165 239 142 156 247 146 165 239 142 156 247 146 165 239 142 156 247 146 165 255 251 255 255 255 255 255 255 255 255 255 255 255 255 255 255 255 255 255 255 255 255 255 255 255 255 255 255 255 255 255 255 255 255 255 255 255 255 255 255 255 255 255 255 255 247 146 165 239 142 156 247 146 165 239 142 156 247 146 165 239 142 156 247 146 165 239 142 156 247 146 165 239 142 156 247 146 165 239 142 156 247 146 165 255 251 255 255 255 255 255 255 255 255 255 255 255 255 255 255 255 255 255 255 255 255 255 255 255 255 255 255 255 255 255 255 255 255 255 255 255 219 206 255 194 173 247 146 165 239 142 165 247 146 165 239 142 165 247 146 165 239 142 165 247 146 165 239 142 165 255 255 255 255 255 255 255 255 255 255 255 255 255 255 255 255 255 255 255 255 255 255 255 255 255 255 255 255 255 255 255 255 255 255 255 255 255 255 255 239 142 165 247 146 165 239 142 165 247 146 165 239 142 165 247 146 165 239 142 165 247 146 165 239 142 165 247 146 165 239 142 165 247 146 165 239 142 165 255 255 255 255 255 255 255 255 255 255 255 255 255 255 255 255 255 255 255 255 255 255 255 255 255 255 255 255 255 255 255 255 255 255 255 255 255 219 206 255 190 165 239 142 156 247 146 165 239 142 156 247 146 165 239 142 156 247 146 165 239 142 156 247 146 165 255 255 255 255 255 255 255 255 255 255 255 255 255 255 255 255 255 255 255 255 255 255 255 255 255 255 255 255 255 255 255 255 255 255 255 255 255 255 255 247 146 165 239 142 156 247 146 165 239 142 156 247 146 165 239 142 156 247 146 165 239 142 156 247 146 165 239 142 156 247 146 165 239 142 156 247 146 165 255 251 255 255 255 255 255 255 255 255 255 255 255 255 255 255 255 255 255 255 255 255 255 255 255 255 255 255 255 255 255 255 255 255 255 255 255 255 255 255 223 214 247 146 165 239 142 165 247 146 165 239 142 165 247 146 165 239 142 165 247 146 165 239 142 165 255 255 255 255 255 255 255 255 255 255 255 255 255 255 255 255 255 255 255 255 255 255 255 255 255 255 255 255 255 255 255 255 255 255 255 255 255 255 255 239 142 165 247 146 165 239 142 165 247 146 165 239 142 165 247 146 165 239 142 165 247 146 165 239 142 165 247 146 165 239 142 165 247 146 165 239 142 165 255 194 115 255 255 255 255 255 255 255 255 255 255 255 255 255 255 255 255 255 255 255 255 255 255 255 255 255 255 255 255 255 255 255 255 255 255 255 255 255 219 206 239 142 156 247 146 165 239 142 156 247 146 165 239 142 156 247 146 165 239 142 156 247 146 165 255 255 255 255 255 255 255 255 255 255 255 255 255 255 255 255 198 115 255 194 107 255 198 115 255 194 107 255 198 115 255 194 107 255 198 115 255 194 107 214 109 148 206 105 140 214 109 148 206 105 140 214 109 148 206 105 140 214 109 148 239 142 156 247 146 165 239 142 156 247 146 165 239 142 156 247 146 165 255 190 107 255 255 255 255 255 255 255 255 255 255 255 255 255 255 255 255 255 255 255 255 255 255 255 255 255 255 255 255 255 255 255 255 255 255 255 255 255 223 214 247 146 165 239 142 165 247 146 165 239 142 165 247 146 165 239 142 165 247 146 165 239 142 165 255 255 255 255 255 255 255 255 255 255 255 255 255 255 255 255 194 107 255 255 255 255 194 107 255 255 255 255 194 107 255 255 255 255 194 107 255 255 255 206 109 148 247 146 165 206 109 148 247 146 165 206 109 148 247 146 165 206 109 148 247 146 165 239 142 165 247 146 165 239 142 165 247 146 165 239 142 165 255 255 255 255 255 255 255 255 255 255 255 255 255 255 255 255 255 255 255 255 255 255 255 255 255 255 255 255 255 255 255 255 255 255 255 255 255 255 255 255 219 206 239 142 156 247 146 165 239 142 156 247 146 165 239 142 156 247 146 165 239 142 156 247 146 165 255 255 255 255 255 255 255 255 255 255 255 255 255 255 255 255 198 115 255 255 255 255 198 115 255 255 255 255 198 115 255 255 255 255 198 115 255 255 255 214 109 148 239 142 156 214 109 148 239 142 156 214 109 148 239 142 156 214 109 148 239 142 156 247 146 165 239 142 156 247 146 165 239 142 156 247 146 165 255 251 255 255 255 255 255 255 255 255 255 255 255 255 255 255 255 255 255 255 255 255 255 255 255 255 255 255 255 255 255 255 255 255 255 255 255 255 255 255 223 214 247 146 165 239 142 165 247 146 165 239 142 165 247 146 165 239 142 165 247 146 165 239 142 165 255 255 255 255 255 255 255 255 255 206 109 148 214 109 148 206 109 148 214 109 148 206 109 148 214 109 148 206 109 148 214 109 148 206 109 148 214 109 148 206 109 148 214 109 148 206 109 148 214 109 148 206 109 148 214 109 148 206 109 148 214 109 148 206 109 148 247 146 165 239 142 165 247 146 165 239 142 165 255 255 255 255 255 255 255 255 255 255 255 255 255 255 255 255 255 255 255 255 255 255 255 255 255 255 255 255 215 156 255 194 115 255 194 107 255 194 107 247 166 140 239 142 156 247 146 165 239 142 156 247 146 165 239 142 156 247 146 165 239 142 156 247 146 165 255 255 255 255 255 255 255 255 255 214 109 148 206 105 140 214 109 148 206 105 140 214 109 148 206 105 140 214 109 148 206 105 140 214 109 148 206 105 140 214 109 148 206 105 140 214 109 148 206 105 140 214 109 148 206 105 140 214 109 148 206 105 140 214 109 148 239 142 156 247 146 165 239 142 156 247 146 165 255 251 255 255 255 255 255 255 255 255 255 255 255 255 255 255 255 255 255 255 255 255 255 255 255 255 255 255 215 165 255 235 206 255 219 173 255 231 197 255 194 206 247 146 165 239 142 165 247 146 165 239 142 165 247 146 165 239 142 165 247 146 165 239 142 165 255 255 255 255 255 255 255 255 255 206 109 148 214 109 148 239 142 165 247 146 165 206 109 148 214 109 148 206 109 148 214 109 148 206 109 148 214 109 148 206 109 148 214 109 148 206 109 148 214 109 148 206 109 148 214 109 148 206 109 148 214 109 148 206 109 148 214 109 148 206 109 148 247 146 165 239 142 165 255 255 255 255 255 255 255 255 255 255 255 255 255 255 255 255 255 255 255 255 255 255 255 255 255 255 255 255 215 156 255 239 214 255 219 165 255 235 206 247 194 206 239 142 156 247 146 165 239 142 156 247 146 165 239 142 156 247 146 165 239 142 156 247 146 165 255 255 255 255 255 255 255 255 255 214 109 148 206 105 140 247 146 165 239 142 156 214 109 148 206 105 140 214 109 148 206 105 140 214 109 148 206 105 140 214 109 148 206 105 140 214 109 148 206 105 140 214 109 148 206 105 140 214 109 148 206 105 140 214 109 148 239 142 156 214 109 148 239 142 156 247 146 165 255 251 255 255 255 255 255 255 255 255 255 255 255 255 255 255 255 255 255 255 255 255 255 255 247 174 189 247 146 165 239 142 156 247 146 165 239 142 156 247 146 165 247 146 165 239 142 165 247 146 165 239 142 165 247 146 165 239 142 165 247 146 165 239 142 165 255 255 255 255 255 255 255 255 255 206 109 148 214 109 148 206 109 148 214 109 148 206 109 148 214 109 148 206 109 148 214 109 148 206 109 148 214 109 148 206 109 148 214 109 148 206 109 148 214 109 148 206 109 148 214 109 148 206 109 148 214 109 148 206 109 148 247 146 165 206 109 148 247 146 165 239 142 165 255 194 115 255 255 255 255 255 255 255 255 255 255 255 255 255 255 255 255 255 255 255 255 255 247 178 189 239 142 165 247 146 165 239 142 165 247 146 165 239 142 165 239 142 156 247 146 165 239 142 156 247 146 165 239 142 156 247 146 165 239 142 156 247 146 165 255 255 255 255 255 255 255 255 255 214 109 148 206 105 140 214 109 148 206 105 140 214 109 148 206 105 140 214 109 148 206 105 140 214 109 148 206 105 140 214 109 148 206 105 140 214 109 148 206 105 140 214 109 148 206 105 140 214 109 148 206 105 140 214 109 148 206 105 140 214 109 148 239 142 156 247 146 165 255 190 107 255 255 255 255 255 255 255 255 255 255 255 255 255 255 255 255 255 255 255 255 255 247 174 189 247 146 165 239 142 156 247 146 165 239 142 156 247 146 165 247 146 165 239 142 165 247 146 165 239 142 165 247 146 165 239 142 165 247 146 165 239 142 165 247 146 165 239 142 165 247 146 165 206 109 148 214 109 148 206 109 148 214 109 148 206 109 148 214 109 148 206 109 148 214 109 148 206 109 148 214 109 148 206 109 148 214 109 148 206 109 148 214 109 148 206 109 148 214 109 148 206 109 148 214 109 148 206 109 148 247 146 165 239 142 165 247 146 165 239 142 165 255 255 255 255 255 255 255 255 255 255 255 255 255 255 255 255 255 255 255 255 255 255 255 255 247 178 189 239 142 165 247 146 165 239 142 165 247 146 165 239 142 165 239 142 156 247 146 165 239 142 156 247 146 165 239 142 156 247 146 165 239 142 156 247 146 165 239 142 156 247 146 165 239 142 156 214 109 148 206 105 140 247 146 165 239 142 156 214 109 148 206 105 140 214 109 148 206 105 140 214 109 148 206 105 140 214 109 148 206 105 140 214 109 148 206 105 140 214 109 148 206 105 140 214 109 148 206 105 140 214 109 148 239 142 156 247 146 165 239 142 156 247 146 165 255 251 255 255 255 255 255 255 255 255 255 255 255 255 255 255 255 255 255 255 255 255 255 255 247 174 189 247 146 165 239 142 156 247 146 165 239 142 156 247 146 165 255 93 123 255 93 115 247 146 165 239 142 165 247 146 165 239 142 165 247 146 165 239 142 165 247 146 165 239 142 165 247 146 165 206 109 148 214 109 148 239 142 165 247 146 165 206 109 148 214 109 148 206 109 148 214 109 148 206 109 148 214 109 148 206 109 148 214 109 148 206 109 148 148 77 115 148 77 107 148 77 107 206 109 148 214 109 148 206 109 148 247 146 165 239 142 165 247 146 165 239 142 165 255 255 255 255 255 255 255 255 255 255 255 255 255 255 255 255 255 255 255 255 255 255 255 255 247 178 189 239 142 165 247 146 165 239 142 165 247 146 165 239 142 165 255 93 115 255 97 123 239 142 156 247 146 165 239 142 156 247 146 165 239 142 156 247 146 165 239 142 156 247 146 165 239 142 156 214 109 148 206 105 140 214 109 148 206 105 140 214 109 148 206 105 140 214 109 148 206 105 140 214 109 148 206 105 140 214 109 148 206 105 140 148 77 115 148 73 107 214 109 148 148 73 107 214 109 148 206 105 140 214 109 148 239 142 156 247 146 165 239 142 156 247 146 165 255 251 255 255 255 255 255 255 255 255 255 255 255 255 255 255 255 255 255 255 255 255 255 255 247 174 189 247 146 165 239 142 156 247 146 165 239 142 156 247 146 165 214 109 148 206 109 148 214 109 148 206 109 148 214 109 148 239 142 165 247 146 165 239 142 165 247 146 165 239 142 165 247 146 165 206 109 148 214 109 148 206 109 148 214 109 148 206 109 148 214 109 148 206 109 148 214 109 148 206 109 148 214 109 148 206 109 148 148 77 115 148 77 107 214 109 148 206 109 148 148 77 115 206 109 148 214 109 148 206 109 148 247 146 165 239 142 165 247 146 165 239 142 165 255 255 255 255 255 255 255 255 255 255 255 255 255 255 255 255 255 255 255 255 255 255 255 255 247 178 189 239 142 165 247 146 165 239 142 165 247 146 165 239 142 165 206 105 140 214 109 148 206 105 140 214 109 148 206 105 140 247 146 165 239 142 156 247 146 165 239 142 156 247 146 165 239 142 156 214 109 148 206 105 140 214 109 148 206 105 140 214 109 148 206 105 140 214 109 148 206 105 140 214 109 148 206 105 140 148 77 115 148 73 107 214 109 148 206 105 140 214 109 148 148 73 107 214 109 148 206 105 140 214 109 148 206 105 140 214 109 148 239 142 156 247 146 165 255 251 255 255 255 255 255 255 255 255 255 255 255 255 255 255 255 255 255 255 255 255 255 255 247 174 189 247 146 165 239 142 156 247 146 165 239 142 156 247 146 165 214 109 148 206 109 148 214 109 148 206 109 148 214 109 148 239 142 165 247 146 165 239 142 165 247 146 165 239 142 165 247 146 165 206 109 148 214 109 148 239 142 165 247 146 165 206 109 148 214 109 148 206 109 148 214 109 148 206 109 148 148 77 115 148 77 107 214 109 148 206 109 148 214 109 148 206 109 148 148 77 107 206 109 148 214 109 148 206 109 148 247 146 165 206 109 148 247 146 165 239 142 165 255 255 255 255 255 255 255 255 255 255 255 255 255 255 255 255 255 255 255 255 255 255 255 255 247 178 189 239 142 165 247 146 165 239 142 165 247 146 165 239 142 165 206 105 140 214 109 148 206 105 140 214 109 148 206 105 140 247 146 165 239 142 156 247 146 165 239 142 156 247 146 165 239 142 156 214 109 148 206 105 140 247 146 165 239 142 156 214 109 148 206 105 140 214 109 148 206 105 140 148 77 115 148 73 107 214 109 148 206 105 140 214 109 148 206 105 140 214 109 148 148 73 107 214 109 148 206 105 140 214 109 148 239 142 156 214 109 148 239 142 156 247 146 165 255 251 255 255 255 255 255 255 255 255 255 255 255 255 255 255 255 255 255 255 255 255 255 255 247 174 189 247 146 165 239 142 156 247 146 165 239 142 156 247 146 165 214 109 148 206 109 148 214 109 148 206 109 148 214 109 148 239 142 165 247 146 165 239 142 165 247 146 165 239 142 165 247 146 165 206 109 148 214 109 148 206 109 148 214 109 148 206 109 148 214 109 148 206 109 148 148 77 115 148 77 107 148 77 107 148 77 107 148 77 115 206 109 148 214 109 148 206 109 148 148 77 115 206 109 148 214 109 148 206 109 148 214 109 148 206 109 148 247 146 165 239 142 165 255 194 115 255 194 107 255 194 107 255 194 107 255 194 115 255 194 107 255 194 107 255 194 107 247 158 148 239 142 165 247 146 165 239 142 165 247 146 165 239 142 165 206 105 140 214 109 148 206 105 140 214 109 148 206 105 140 247 146 165 239 142 156 247 146 165 239 142 156 247 146 165 239 142 156 214 109 148 206 105 140 214 109 148 206 105 140 214 109 148 206 105 140 214 109 148 148 73 107 148 77 115 148 73 107 148 77 115 148 73 107 214 109 148 206 105 140 214 109 148 148 73 107 214 109 148 206 105 140 214 109 148 239 142 156 247 146 165 239 142 156 247 146 165 255 251 255 255 202 123 255 251 247 255 206 132 255 247 230 255 206 140 255 243 222 255 210 148 247 158 148 247 146 165 239 142 156 247 146 165 239 142 156 247 146 165 214 109 148 206 109 148 214 109 148 206 109 148 214 109 148 239 142 165 247 146 165 239 142 165 247 146 165 239 142 165 247 146 165 206 109 148 214 109 148 206 109 148 214 109 148 206 109 148 214 109 148 206 109 148 214 109 148 148 77 107 214 109 148 206 109 148 214 109 148 206 109 148 214 109 148 206 109 148 148 77 107 206 109 148 214 109 148 206 109 148 247 146 165 239 142 165 247 146 165 239 142 165 247 146 165 239 142 165 247 146 165 239 142 165 247 146 165 239 142 165 247 146 165 239 142 165 247 146 165 239 142 165 247 146 165 239 142 165 247 146 165 239 142 165 206 105 140 214 109 148 206 105 140 214 109 148 206 105 140 247 146 165 239 142 156 247 146 165 239 142 156 247 146 165 239 142 156 214 109 148 206 105 140 247 146 165 239 142 156 214 109 148 206 105 140 214 109 148 206 105 140 148 77 115 206 105 140 214 109 148 206 105 140 214 109 148 206 105 140 214 109 148 148 73 107 214 109 148 206 105 140 214 109 148 239 142 156 247 146 165 239 142 156 247 146 165 239 142 156 247 146 165 239 142 156 247 146 165 239 142 156 247 146 165 239 142 156 247 146 165 239 142 156 247 146 165 239 142 156 247 146 165 239 142 156 230 125 156 214 109 148 206 109 148 214 109 148 206 109 148 214 109 148 239 142 165 247 146 165 239 142 165 255 93 115 255 93 115 247 146 165 206 109 148 214 109 148 239 142 165 247 146 165 206 109 148 214 109 148 206 109 148 214 109 148 148 77 107 255 93 115 255 93 115 214 109 148 206 109 148 214 109 148 206 109 148 148 77 115 206 109 148 214 109 148 206 109 148 247 146 165 239 142 165 247 146 165 239 142 165 247 146 165 239 142 165 247 146 165 239 142 165 247 146 165 239 142 165 247 146 165 239 142 165 247 146 165 239 142 165 247 146 165 239 142 165 247 146 165 222 121 156 206 105 140 214 109 148 206 105 140 214 109 148 206 105 140 247 146 165 239 142 156 247 146 165 255 93 115 255 97 123 239 142 156 214 109 148 206 105 140 214 109 148 206 105 140 214 109 148 206 105 140 214 109 148 206 105 140 148 77 115 255 93 115 255 97 123 206 105 140 214 109 148 206 105 140 214 109 148 148 73 107 214 109 148 206 105 140 214 109 148 206 105 140 214 109 148 239 142 156 247 146 165 239 142 156 247 146 165 239 142 156 247 146 165 239 142 156 247 146 165 239 142 156 247 146 165 239 142 156 247 146 165 239 142 156 247 146 165 239 142 156 230 125 156 214 109 148 206 109 148 214 109 148 206 109 148 214 109 148 239 142 165 247 146 165 148 77 107 148 77 115 148 77 107 148 77 107 148 77 107 148 77 115 148 77 107 148 77 107 148 77 107 148 77 115 148 77 107 148 77 107 148 77 107 148 77 115 148 77 107 148 77 107 148 77 107 214 109 148 206 109 148 148 77 107 206 109 148 214 109 148 206 109 148 247 146 165 206 109 148 247 146 165 239 142 165 247 146 165 239 142 165 247 146 165 239 142 165 247 146 165 239 142 165 247 146 165 239 142 165 247 146 165 239 142 165 247 146 165 239 142 165 247 146 165 222 121 148